Newaita-dark/.places-ubuntu/32/user-trash-full.svg

<?xml version="1.0" encoding="UTF-8"?>
<svg xmlns="http://www.w3.org/2000/svg" xmlns:xlink="http://www.w3.org/1999/xlink" width="32pt" height="32pt" viewBox="0 0 32 32" version="1.1">
<defs>
<linearGradient id="linear0" gradientUnits="userSpaceOnUse" x1="254" y1="233.5" x2="254" y2="254.666672" gradientTransform="matrix(0.062506,0,0,0.062506,-0.00000381506,13.438785)">
<stop offset="0" style="stop-color:rgb(0%,0%,0%);stop-opacity:0.27451;"/>
<stop offset="1" style="stop-color:rgb(0%,0%,0%);stop-opacity:0;"/>
</linearGradient>
<radialGradient id="radial0" gradientUnits="userSpaceOnUse" cx="450.908936" cy="189.579361" fx="450.908936" fy="189.579361" r="21.166656" gradientTransform="matrix(0.00000017417,-0.0781325,-0.140638,-0.000000101539,49.484565,63.595333)">
<stop offset="0" style="stop-color:rgb(0%,0%,0%);stop-opacity:0.313725;"/>
<stop offset="0.222222" style="stop-color:rgb(0%,0%,0%);stop-opacity:0.27451;"/>
<stop offset="1" style="stop-color:rgb(0%,0%,0%);stop-opacity:0;"/>
</radialGradient>
<radialGradient id="radial1" gradientUnits="userSpaceOnUse" cx="450.908936" cy="189.579361" fx="450.908936" fy="189.579361" r="21.166656" gradientTransform="matrix(-0.00000017417,0.0781325,0.140638,0.000000101539,-17.731532,-7.527479)">
<stop offset="0" style="stop-color:rgb(0%,0%,0%);stop-opacity:0.313725;"/>
<stop offset="0.222222" style="stop-color:rgb(0%,0%,0%);stop-opacity:0.27451;"/>
<stop offset="1" style="stop-color:rgb(0%,0%,0%);stop-opacity:0;"/>
</radialGradient>
<radialGradient id="radial2" gradientUnits="userSpaceOnUse" cx="450.908936" cy="189.579361" fx="450.908936" fy="189.579361" r="21.166656" gradientTransform="matrix(-0.00000017417,-0.0781325,0.140638,-0.000000101539,-17.731532,63.595333)">
<stop offset="0" style="stop-color:rgb(0%,0%,0%);stop-opacity:0.313725;"/>
<stop offset="0.222222" style="stop-color:rgb(0%,0%,0%);stop-opacity:0.27451;"/>
<stop offset="1" style="stop-color:rgb(0%,0%,0%);stop-opacity:0;"/>
</radialGradient>
<radialGradient id="radial3" gradientUnits="userSpaceOnUse" cx="450.908936" cy="189.579361" fx="450.908936" fy="189.579361" r="21.166656" gradientTransform="matrix(0.00000017417,0.0781325,-0.140638,0.000000101539,49.484563,-7.527479)">
<stop offset="0" style="stop-color:rgb(0%,0%,0%);stop-opacity:0.313725;"/>
<stop offset="0.222222" style="stop-color:rgb(0%,0%,0%);stop-opacity:0.27451;"/>
<stop offset="1" style="stop-color:rgb(0%,0%,0%);stop-opacity:0;"/>
</radialGradient>
<linearGradient id="linear1" gradientUnits="userSpaceOnUse" x1="254" y1="-105.166672" x2="254" y2="233.5" gradientTransform="matrix(0.062506,0,0,0.062506,0,13.438783)">
<stop offset="0" style="stop-color:rgb(100%,54.117647%,39.607843%);stop-opacity:1;"/>
<stop offset="1" style="stop-color:rgb(100%,43.921569%,26.27451%);stop-opacity:1;"/>
</linearGradient>
<linearGradient id="linear2" gradientUnits="userSpaceOnUse" x1="254" y1="233.5" x2="254" y2="-168.666656" >
<stop offset="0" style="stop-color:rgb(40.392157%,22.745098%,71.764706%);stop-opacity:1;"/>
<stop offset="1" style="stop-color:rgb(49.411765%,34.117647%,76.078431%);stop-opacity:1;"/>
</linearGradient>
<linearGradient id="linear3" gradientUnits="userSpaceOnUse" x1="285.75" y1="191.166672" x2="285.75" y2="-147.5" >
<stop offset="0" style="stop-color:rgb(100%,54.117647%,39.607843%);stop-opacity:1;"/>
<stop offset="1" style="stop-color:rgb(100%,43.921569%,26.27451%);stop-opacity:1;"/>
</linearGradient>
<linearGradient id="linear4" gradientUnits="userSpaceOnUse" x1="253.999985" y1="233.5" x2="253.999985" y2="-105.166672" gradientTransform="matrix(1,0,0,1,84.666679,0)">
<stop offset="0" style="stop-color:rgb(93.72549%,32.54902%,31.372549%);stop-opacity:1;"/>
<stop offset="1" style="stop-color:rgb(89.803922%,45.098039%,45.098039%);stop-opacity:1;"/>
</linearGradient>
<linearGradient id="linear5" gradientUnits="userSpaceOnUse" x1="275.166656" y1="233.5" x2="275.166656" y2="-105.166672" >
<stop offset="0" style="stop-color:rgb(93.72549%,32.54902%,31.372549%);stop-opacity:1;"/>
<stop offset="1" style="stop-color:rgb(89.803922%,45.098039%,45.098039%);stop-opacity:1;"/>
</linearGradient>
<linearGradient id="linear6" gradientUnits="userSpaceOnUse" x1="253.999985" y1="233.5" x2="253.999985" y2="-105.166656" gradientTransform="matrix(1,0,0,1,-84.666656,0)">
<stop offset="0" style="stop-color:rgb(93.72549%,32.54902%,31.372549%);stop-opacity:1;"/>
<stop offset="1" style="stop-color:rgb(89.803922%,45.098039%,45.098039%);stop-opacity:1;"/>
</linearGradient>
</defs>
<g id="surface1">
<path style=" stroke:none;fill-rule:nonzero;fill:url(#linear0);" d="M 8.601562 28.035156 L 23.152344 28.035156 L 23.152344 29.355469 L 8.601562 29.355469 Z M 8.601562 28.035156 "/>
<path style=" stroke:none;fill-rule:nonzero;fill:url(#radial0);" d="M 23.152344 28.035156 L 25.800781 28.035156 L 25.800781 26.710938 L 23.152344 26.710938 Z M 23.152344 28.035156 "/>
<path style=" stroke:none;fill-rule:nonzero;fill:url(#radial1);" d="M 8.601562 28.035156 L 5.953125 28.035156 L 5.953125 29.355469 L 8.601562 29.355469 Z M 8.601562 28.035156 "/>
<path style=" stroke:none;fill-rule:nonzero;fill:url(#radial2);" d="M 8.601562 28.035156 L 5.953125 28.035156 L 5.953125 26.710938 L 8.601562 26.710938 Z M 8.601562 28.035156 "/>
<path style=" stroke:none;fill-rule:nonzero;fill:url(#radial3);" d="M 23.152344 28.035156 L 25.800781 28.035156 L 25.800781 29.355469 L 23.152344 29.355469 Z M 23.152344 28.035156 "/>
<path style=" stroke:none;fill-rule:nonzero;fill:url(#linear1);" d="M 7.277344 6.867188 L 24.476562 6.867188 C 25.207031 6.867188 25.800781 7.457031 25.800781 8.1875 L 25.800781 26.710938 C 25.800781 27.441406 25.207031 28.035156 24.476562 28.035156 L 7.277344 28.035156 C 6.546875 28.035156 5.953125 27.441406 5.953125 26.710938 L 5.953125 8.1875 C 5.953125 7.457031 6.546875 6.867188 7.277344 6.867188 Z M 7.277344 6.867188 "/>
<path style=" stroke:none;fill-rule:nonzero;fill:rgb(0%,0%,0%);fill-opacity:0.196078;" d="M 5.953125 25.222656 L 25.800781 25.222656 L 25.800781 25.386719 L 5.953125 25.386719 Z M 5.953125 25.222656 "/>
<path style=" stroke:none;fill-rule:nonzero;fill:rgb(90.196079%,90.196079%,90.196079%);fill-opacity:0.588235;" d="M 5.953125 25.386719 L 25.800781 25.386719 L 25.800781 25.554688 L 5.953125 25.554688 Z M 5.953125 25.386719 "/>
<path style=" stroke:none;fill-rule:nonzero;fill:rgb(12.941177%,12.941177%,12.941177%);fill-opacity:0.992157;" d="M 5.953125 25.304688 L 25.800781 25.304688 L 25.800781 25.46875 L 5.953125 25.46875 Z M 5.953125 25.304688 "/>
<path style="fill-rule:nonzero;fill:url(#linear2);stroke-width:3;stroke-linecap:round;stroke-linejoin:miter;stroke:rgb(12.941177%,12.941177%,12.941177%);stroke-opacity:1;stroke-miterlimit:4;" d="M 253.975747 -168.691922 C 265.662131 -168.691922 275.161223 -159.192829 275.161223 -147.506445 C 275.161223 -135.820061 265.662131 -126.320968 253.975747 -126.320968 C 242.289363 -126.320968 232.852764 -135.820061 232.852764 -147.506445 C 232.852764 -159.192829 242.289363 -168.691922 253.975747 -168.691922 Z M 253.975747 -168.691922 " transform="matrix(0.062506,0,0,0.062506,0,13.438783)"/>
<path style="fill-rule:nonzero;fill:url(#linear3);stroke-width:3;stroke-linecap:round;stroke-linejoin:miter;stroke:rgb(12.941177%,12.941177%,12.941177%);stroke-opacity:1;stroke-miterlimit:4;" d="M 105.802396 -147.506445 L 402.149097 -147.506445 C 413.835481 -147.506445 423.334574 -138.007352 423.334574 -126.320968 C 423.334574 -114.634584 413.835481 -105.135492 402.149097 -105.135492 L 105.802396 -105.135492 C 94.116012 -105.135492 84.679414 -114.634584 84.679414 -126.320968 C 84.679414 -138.007352 94.116012 -147.506445 105.802396 -147.506445 Z M 105.802396 -147.506445 " transform="matrix(0.062506,0,0,0.062506,0,13.438783)"/>
<path style="fill-rule:nonzero;fill:url(#linear4);stroke-width:3;stroke-linecap:round;stroke-linejoin:miter;stroke:rgb(12.941177%,12.941177%,12.941177%);stroke-opacity:1;stroke-miterlimit:4;" d="M 338.65516 -62.827032 C 350.341544 -62.827032 359.840637 -53.327939 359.840637 -41.641555 L 359.840637 148.840255 C 359.840637 160.526639 350.341544 170.025732 338.65516 170.025732 C 326.968776 170.025732 317.469683 160.526639 317.469683 148.840255 L 317.469683 -41.641555 C 317.469683 -53.327939 326.968776 -62.827032 338.65516 -62.827032 Z M 338.65516 -62.827032 " transform="matrix(0.062506,0,0,0.062506,0,13.438783)"/>
<path style=" stroke:none;fill-rule:nonzero;fill:rgb(90.196079%,90.196079%,90.196079%);fill-opacity:0.392157;" d="M 6.613281 4.3125 C 5.882812 4.3125 5.292969 4.902344 5.292969 5.636719 L 5.292969 5.800781 C 5.292969 5.066406 5.882812 4.476562 6.613281 4.476562 L 25.136719 4.476562 C 25.871094 4.476562 26.460938 5.066406 26.460938 5.800781 L 26.460938 5.636719 C 26.460938 4.902344 25.871094 4.3125 25.136719 4.3125 Z M 6.613281 4.3125 "/>
<path style=" stroke:none;fill-rule:nonzero;fill:rgb(0%,0%,0%);fill-opacity:0.196078;" d="M 6.613281 6.765625 C 5.882812 6.765625 5.292969 6.175781 5.292969 5.441406 L 5.292969 5.277344 C 5.292969 6.011719 5.882812 6.601562 6.613281 6.601562 L 25.136719 6.601562 C 25.871094 6.601562 26.460938 6.011719 26.460938 5.277344 L 26.460938 5.441406 C 26.460938 6.175781 25.871094 6.765625 25.136719 6.765625 Z M 6.613281 6.765625 "/>
<path style=" stroke:none;fill-rule:nonzero;fill:rgb(20%,20%,20%);fill-opacity:1;" d="M 6.617188 4.125 C 5.832031 4.125 5.199219 4.757812 5.199219 5.542969 C 5.199219 6.324219 5.832031 6.960938 6.617188 6.960938 L 25.136719 6.960938 C 25.921875 6.960938 26.554688 6.324219 26.554688 5.542969 C 26.554688 4.757812 25.921875 4.125 25.136719 4.125 Z M 6.617188 4.3125 L 25.136719 4.3125 C 25.820312 4.3125 26.367188 4.859375 26.367188 5.542969 C 26.367188 6.226562 25.820312 6.773438 25.136719 6.773438 L 6.617188 6.773438 C 5.933594 6.773438 5.386719 6.226562 5.386719 5.542969 C 5.386719 4.859375 5.933594 4.3125 6.617188 4.3125 Z M 6.617188 4.3125 "/>
<path style=" stroke:none;fill-rule:nonzero;fill:rgb(90.196079%,90.196079%,90.196079%);fill-opacity:0.392157;" d="M 7.277344 6.953125 C 6.542969 6.953125 5.953125 7.542969 5.953125 8.273438 L 5.953125 8.441406 C 5.953125 7.707031 6.542969 7.117188 7.277344 7.117188 L 24.476562 7.117188 C 25.210938 7.117188 25.800781 7.707031 25.800781 8.441406 L 25.800781 8.273438 C 25.800781 7.542969 25.210938 6.953125 24.476562 6.953125 Z M 7.277344 6.953125 "/>
<path style=" stroke:none;fill-rule:nonzero;fill:rgb(0%,0%,0%);fill-opacity:0.196078;" d="M 7.277344 27.933594 C 6.542969 27.933594 5.953125 27.34375 5.953125 26.609375 L 5.953125 26.445312 C 5.953125 27.179688 6.542969 27.769531 7.277344 27.769531 L 24.476562 27.769531 C 25.210938 27.769531 25.800781 27.179688 25.800781 26.445312 L 25.800781 26.609375 C 25.800781 27.34375 25.210938 27.933594 24.476562 27.933594 Z M 7.277344 27.933594 "/>
<path style="fill:none;stroke-width:3;stroke-linecap:round;stroke-linejoin:miter;stroke:rgb(12.941177%,12.941177%,12.941177%);stroke-opacity:1;stroke-miterlimit:4;" d="M 116.426382 -105.135492 L 391.587605 -105.135492 C 403.273989 -105.135492 412.773082 -95.698893 412.773082 -84.012509 L 412.773082 212.334192 C 412.773082 224.020576 403.273989 233.519669 391.587605 233.519669 L 116.426382 233.519669 C 104.739998 233.519669 95.240905 224.020576 95.240905 212.334192 L 95.240905 -84.012509 C 95.240905 -95.698893 104.739998 -105.135492 116.426382 -105.135492 Z M 116.426382 -105.135492 " transform="matrix(0.062506,0,0,0.062506,0,13.438783)"/>
<path style="fill-rule:nonzero;fill:url(#linear5);stroke-width:3;stroke-linecap:round;stroke-linejoin:miter;stroke:rgb(12.941177%,12.941177%,12.941177%);stroke-opacity:1;stroke-miterlimit:4;" d="M 253.975747 -62.827032 C 265.662131 -62.827032 275.161223 -53.327939 275.161223 -41.641555 L 275.161223 148.840255 C 275.161223 160.526639 265.662131 170.025732 253.975747 170.025732 C 242.289363 170.025732 232.852764 160.526639 232.852764 148.840255 L 232.852764 -41.641555 C 232.852764 -53.327939 242.289363 -62.827032 253.975747 -62.827032 Z M 253.975747 -62.827032 " transform="matrix(0.062506,0,0,0.062506,0,13.438783)"/>
<path style="fill-rule:nonzero;fill:url(#linear6);stroke-width:3;stroke-linecap:round;stroke-linejoin:miter;stroke:rgb(12.941177%,12.941177%,12.941177%);stroke-opacity:1;stroke-miterlimit:4;" d="M 169.358827 -62.827032 C 181.045211 -62.827032 190.48181 -53.327939 190.48181 -41.641555 L 190.48181 148.840255 C 190.48181 160.526639 181.045211 170.025732 169.358827 170.025732 C 157.672443 170.025732 148.17335 160.526639 148.17335 148.840255 L 148.17335 -41.641555 C 148.17335 -53.327939 157.672443 -62.827032 169.358827 -62.827032 Z M 169.358827 -62.827032 " transform="matrix(0.062506,0,0,0.062506,0,13.438783)"/>
</g>
</svg>

<svg xmlns="http://www.w3.org/2000/svg" width="32pt" height="32pt" viewBox="0 0 32 32"><defs><linearGradient id="a" gradientUnits="userSpaceOnUse" x1="254" y1="233.5" x2="254" y2="254.667" gradientTransform="matrix(.0625 0 0 .0625 0 13.439)"><stop offset="0" stop-opacity=".275"/><stop offset="1" stop-opacity="0"/></linearGradient><radialGradient id="b" gradientUnits="userSpaceOnUse" cx="450.909" cy="189.579" fx="450.909" fy="189.579" r="21.167" gradientTransform="matrix(0 -.07813 -.14064 0 49.485 63.595)"><stop offset="0" stop-opacity=".314"/><stop offset=".222" stop-opacity=".275"/><stop offset="1" stop-opacity="0"/></radialGradient><radialGradient id="c" gradientUnits="userSpaceOnUse" cx="450.909" cy="189.579" fx="450.909" fy="189.579" r="21.167" gradientTransform="matrix(0 .07813 .14064 0 -17.732 -7.527)"><stop offset="0" stop-opacity=".314"/><stop offset=".222" stop-opacity=".275"/><stop offset="1" stop-opacity="0"/></radialGradient><radialGradient id="d" gradientUnits="userSpaceOnUse" cx="450.909" cy="189.579" fx="450.909" fy="189.579" r="21.167" gradientTransform="matrix(0 -.07813 .14064 0 -17.732 63.595)"><stop offset="0" stop-opacity=".314"/><stop offset=".222" stop-opacity=".275"/><stop offset="1" stop-opacity="0"/></radialGradient><radialGradient id="e" gradientUnits="userSpaceOnUse" cx="450.909" cy="189.579" fx="450.909" fy="189.579" r="21.167" gradientTransform="matrix(0 .07813 -.14064 0 49.485 -7.527)"><stop offset="0" stop-opacity=".314"/><stop offset=".222" stop-opacity=".275"/><stop offset="1" stop-opacity="0"/></radialGradient><linearGradient id="f" gradientUnits="userSpaceOnUse" x1="254" y1="-105.167" x2="254" y2="233.5" gradientTransform="matrix(.0625 0 0 .0625 0 13.439)"><stop offset="0" stop-color="#ff8a65"/><stop offset="1" stop-color="#ff7043"/></linearGradient><linearGradient id="g" gradientUnits="userSpaceOnUse" x1="254" y1="233.5" x2="254" y2="-168.667"><stop offset="0" stop-color="#673ab7"/><stop offset="1" stop-color="#7e57c2"/></linearGradient><linearGradient id="h" gradientUnits="userSpaceOnUse" x1="285.75" y1="191.167" x2="285.75" y2="-147.5"><stop offset="0" stop-color="#ff8a65"/><stop offset="1" stop-color="#ff7043"/></linearGradient><linearGradient id="i" gradientUnits="userSpaceOnUse" x1="254" y1="233.5" x2="254" y2="-105.167" gradientTransform="translate(84.667)"><stop offset="0" stop-color="#ef5350"/><stop offset="1" stop-color="#e57373"/></linearGradient><linearGradient id="j" gradientUnits="userSpaceOnUse" x1="275.167" y1="233.5" x2="275.167" y2="-105.167"><stop offset="0" stop-color="#ef5350"/><stop offset="1" stop-color="#e57373"/></linearGradient><linearGradient id="k" gradientUnits="userSpaceOnUse" x1="254" y1="233.5" x2="254" y2="-105.167" gradientTransform="translate(-84.667)"><stop offset="0" stop-color="#ef5350"/><stop offset="1" stop-color="#e57373"/></linearGradient></defs><path d="M8.602 28.035h14.55v1.32H8.602zm0 0" fill="url(#a)"/><path d="M23.152 28.035h2.649v-1.324h-2.649zm0 0" fill="url(#b)"/><path d="M8.602 28.035H5.953v1.32h2.649zm0 0" fill="url(#c)"/><path d="M8.602 28.035H5.953v-1.324h2.649zm0 0" fill="url(#d)"/><path d="M23.152 28.035h2.649v1.32h-2.649zm0 0" fill="url(#e)"/><path d="M7.277 6.867h17.2c.73 0 1.324.59 1.324 1.32v18.524c0 .73-.594 1.324-1.324 1.324h-17.2c-.73 0-1.324-.594-1.324-1.324V8.188c0-.731.594-1.32 1.324-1.32zm0 0" fill="url(#f)"/><path d="M5.953 25.223h19.848v.164H5.953zm0 0" fill-opacity=".196"/><path d="M5.953 25.387h19.848v.168H5.953zm0 0" fill="#e6e6e6" fill-opacity=".588"/><path d="M5.953 25.305h19.848v.164H5.953zm0 0" fill="#212121" fill-opacity=".992"/><path d="M253.976-168.692c11.686 0 21.185 9.5 21.185 21.186s-9.499 21.185-21.185 21.185c-11.687 0-21.123-9.5-21.123-21.185 0-11.687 9.436-21.186 21.123-21.186zm0 0" transform="matrix(.0625 0 0 .0625 0 13.439)" fill="url(#g)" stroke-width="3" stroke-linecap="round" stroke="#212121"/><path d="M105.802-147.506H402.15c11.686 0 21.186 9.499 21.186 21.185 0 11.686-9.5 21.186-21.186 21.186H105.802c-11.686 0-21.123-9.5-21.123-21.186s9.437-21.185 21.123-21.185zm0 0" transform="matrix(.0625 0 0 .0625 0 13.439)" fill="url(#h)" stroke-width="3" stroke-linecap="round" stroke="#212121"/><path d="M338.655-62.827c11.687 0 21.186 9.5 21.186 21.185V148.84c0 11.687-9.5 21.186-21.186 21.186s-21.185-9.5-21.185-21.186V-41.642c0-11.686 9.499-21.185 21.185-21.185zm0 0" transform="matrix(.0625 0 0 .0625 0 13.439)" fill="url(#i)" stroke-width="3" stroke-linecap="round" stroke="#212121"/><path d="M6.613 4.313c-.73 0-1.32.59-1.32 1.324V5.8c0-.735.59-1.324 1.32-1.324h18.524c.734 0 1.324.59 1.324 1.324v-.164a1.32 1.32 0 0 0-1.324-1.324zm0 0" fill="#e6e6e6" fill-opacity=".392"/><path d="M6.613 6.766c-.73 0-1.32-.59-1.32-1.325v-.164c0 .735.59 1.325 1.32 1.325h18.524a1.32 1.32 0 0 0 1.324-1.325v.164a1.32 1.32 0 0 1-1.324 1.325zm0 0" fill-opacity=".196"/><path d="M6.617 4.125a1.418 1.418 0 1 0 0 2.836h18.52a1.418 1.418 0 1 0 0-2.836zm0 .188h18.52c.683 0 1.23.546 1.23 1.23 0 .684-.547 1.23-1.23 1.23H6.617c-.683 0-1.23-.546-1.23-1.23 0-.684.547-1.23 1.23-1.23zm0 0" fill="#333"/><path d="M7.277 6.953a1.32 1.32 0 0 0-1.324 1.32v.168c0-.734.59-1.324 1.324-1.324h17.2c.734 0 1.324.59 1.324 1.324v-.168c0-.73-.59-1.32-1.324-1.32zm0 0" fill="#e6e6e6" fill-opacity=".392"/><path d="M7.277 27.934a1.32 1.32 0 0 1-1.324-1.325v-.164c0 .735.59 1.325 1.324 1.325h17.2a1.32 1.32 0 0 0 1.324-1.325v.164a1.32 1.32 0 0 1-1.324 1.325zm0 0" fill-opacity=".196"/><path d="M7.277 6.867h17.2c.73 0 1.324.59 1.324 1.32v18.524c0 .73-.594 1.324-1.324 1.324h-17.2c-.73 0-1.324-.594-1.324-1.324V8.187c0-.73.594-1.32 1.324-1.32zm0 0" fill="none" stroke-width=".18752999999999997" stroke-linecap="round" stroke="#212121"/><path d="M253.976-62.827c11.686 0 21.185 9.5 21.185 21.185V148.84c0 11.687-9.499 21.186-21.185 21.186-11.687 0-21.123-9.5-21.123-21.186V-41.642c0-11.686 9.436-21.185 21.123-21.185zm0 0" transform="matrix(.0625 0 0 .0625 0 13.439)" fill="url(#j)" stroke-width="3" stroke-linecap="round" stroke="#212121"/><path d="M169.359-62.827c11.686 0 21.123 9.5 21.123 21.185V148.84c0 11.687-9.437 21.186-21.123 21.186-11.687 0-21.186-9.5-21.186-21.186V-41.642c0-11.686 9.5-21.185 21.186-21.185zm0 0" transform="matrix(.0625 0 0 .0625 0 13.439)" fill="url(#k)" stroke-width="3" stroke-linecap="round" stroke="#212121"/></svg>
